X:2
T:Margaret's Waltz
%%grid -8 music
C:Pat Shaw
R:waltz
M:3/4
L:1/8
K:Amaj
c2| "A"E3 FAB|c4 c2|"D"BA F2 A2|"E"B4 c2|\
"A"E3 FAB|ce3 AB|"E6"c2c2 "E7"B2|"A"A4:|
cd|"C#m"e2 f2 g2|"A"a2 g2 a2|"D"fe d2 f2|"E7"e4 cB|\
"F#m"A3 B cd|"A"e2 c2 e2|"D"fe d2 c2|B4 cd|
"C#m"e2 f2 g2|"F#m"a2 g2 f2|"Bm"e2 d2 c2|"E7"B4 c2|\
"A"E3 FAB|ce3 AB|"E7"c2 c2 B2|"A"A4|]

